X: 110
T:My Bonny Moorhen
S:Sheila Douglas, The Sang's the Thing
G:song, free rhythm
M:6/8
L:1/8
Q:3/8=60
K:EMin
% dorian/minor hexatonic
E|E<AA B2A |G<EE E2z|G<AG BAB |G<DD D2
D|GFG  A>GA|BAd  e2d|B>AG A>Bd|F<EE E2||
E|e<ee g2g |f<dd d2d|ded  fef |d<AB A2
z|BAB  B>AG|A<Bd e2d|B<AG A<Bd|F<EE E2|]

